src/assets/outline/QuoteUp.svg

<svg width="24" height="24" viewBox="0 0 24 24"  xmlns="http://www.w3.org/2000/svg">
<path d="M7.79999 21.47H4.58002C2.75002 21.47 1.25 19.9801 1.25 18.1401V12.3401C1.25 11.9301 1.59 11.5901 2 11.5901H7.79999C9.69999 11.5901 11.13 13.02 11.13 14.92V18.1401C11.12 20.0401 9.68999 21.47 7.79999 21.47ZM2.75 13.1V18.1501C2.75 19.1601 3.57002 19.98 4.58002 19.98H7.79999C8.85999 19.98 9.63 19.2101 9.63 18.1501V14.9301C9.63 13.8701 8.85999 13.1 7.79999 13.1H2.75Z" />
<path d="M2 13.1C1.59 13.1 1.25 12.76 1.25 12.35C1.25 6.10004 2.52002 4.79008 6.15002 2.64008C6.51002 2.43008 6.96999 2.55009 7.17999 2.90009C7.38999 3.26009 7.26998 3.72006 6.91998 3.93006C3.67998 5.85006 2.75 6.65004 2.75 12.35C2.75 12.76 2.41 13.1 2 13.1Z" />
<path d="M19.4201 21.47H16.2001C14.3701 21.47 12.8701 19.9801 12.8701 18.1401V12.3401C12.8701 11.9301 13.2101 11.5901 13.6201 11.5901H19.4201C21.3201 11.5901 22.7501 13.02 22.7501 14.92V18.1401C22.7501 20.0401 21.3201 21.47 19.4201 21.47ZM14.3801 13.1V18.1501C14.3801 19.1601 15.2001 19.98 16.2101 19.98H19.4301C20.4901 19.98 21.2601 19.2101 21.2601 18.1501V14.9301C21.2601 13.8701 20.4901 13.1 19.4301 13.1H14.3801Z" />
<path d="M13.6299 13.1C13.2199 13.1 12.8799 12.76 12.8799 12.35C12.8799 6.10004 14.1499 4.79008 17.7799 2.64008C18.1399 2.43008 18.5999 2.55009 18.8099 2.90009C19.0199 3.26009 18.8999 3.72006 18.5499 3.93006C15.3099 5.85006 14.3799 6.65004 14.3799 12.35C14.3799 12.76 14.0399 13.1 13.6299 13.1Z" />
</svg>

<?xml version="1.0" encoding="UTF-8"?>
<svg width="24" height="24" viewBox="0 0 24 24" xmlns="http://www.w3.org/2000/svg">
 <path d="m7.8 21.47h-3.22c-1.83 0-3.33-1.4899-3.33-3.3299v-5.8c0-0.41 0.34-0.75 0.75-0.75h5.8c1.9 0 3.33 1.4299 3.33 3.3299v3.2201c-0.01 1.9-1.44 3.3299-3.33 3.3299zm-5.05-8.37v5.0501c0 1.01 0.82002 1.8299 1.83 1.8299h3.22c1.06 0 1.83-0.7699 1.83-1.8299v-3.22c0-1.06-0.77001-1.8301-1.83-1.8301h-5.05z"/>
 <path d="m2 13.1c-0.41 0-0.75-0.34-0.75-0.75 0-6.25 1.27-7.5599 4.9-9.7099 0.36-0.21 0.81997-0.08999 1.03 0.26001 0.21 0.36 0.08999 0.81997-0.26001 1.03-3.24 1.92-4.17 2.72-4.17 8.4199 0 0.41-0.34 0.75-0.75 0.75z"/>
 <path d="m19.42 21.47h-3.22c-1.83 0-3.33-1.4899-3.33-3.3299v-5.8c0-0.41 0.34-0.75 0.75-0.75h5.8c1.9 0 3.33 1.4299 3.33 3.3299v3.2201c0 1.9-1.43 3.3299-3.33 3.3299zm-5.04-8.37v5.0501c0 1.01 0.82 1.8299 1.83 1.8299h3.22c1.06 0 1.83-0.7699 1.83-1.8299v-3.22c0-1.06-0.77-1.8301-1.83-1.8301h-5.05z"/>
 <path d="m13.63 13.1c-0.41 0-0.75-0.34-0.75-0.75 0-6.25 1.27-7.5599 4.9-9.7099 0.36-0.21 0.82-0.08999 1.03 0.26001 0.21 0.36 0.09 0.81997-0.26 1.03-3.24 1.92-4.17 2.72-4.17 8.4199 0 0.41-0.34 0.75-0.75 0.75z"/>
</svg>
